build/system/PersonPropertiesOutline.svg

<svg xmlns="http://www.w3.org/2000/svg" fill="none" viewBox="0 0 24 24" focusable="false"><path d="M0 0H24V24H0z"/><path fill="#74767B" fill-rule="evenodd" d="M7.56456 7.96802C7.26365 5.32002 9.33497 3 12 3C14.6651 3 16.7364 5.32002 16.4355 7.96803L16.1734 10.274C15.9322 12.3966 14.1363 14 12 14C9.86377 14 8.06781 12.3966 7.8266 10.274L7.56456 7.96802ZM15.1438 7.82124L14.8817 10.1272C14.7152 11.5928 13.4751 12.7 12 12.7C10.5249 12.7 9.28484 11.5928 9.11829 10.1272L8.85625 7.82124C8.64297 5.94439 10.1111 4.3 12 4.3C13.889 4.3 15.3571 5.94439 15.1438 7.82124ZM16.0375 13.7656C16.1017 13.3267 16.4971 13 16.964 13L17.9726 13C18.4338 13 18.8262 13.3191 18.8969 13.7516C18.9883 14.3109 19.6165 14.6467 20.1767 14.4308C20.6093 14.2642 21.1052 14.4257 21.3386 14.8094L21.8429 15.6384C22.0735 16.0174 21.9785 16.4994 21.6192 16.7738C21.1545 17.1286 21.1621 17.8128 21.6392 18.1653C22.0076 18.4374 22.1081 18.9257 21.8746 19.3094L21.3703 20.1384C21.1397 20.5174 20.6524 20.6804 20.2223 20.5222C19.6375 20.3071 18.993 20.6603 18.8969 21.2484C18.8262 21.681 18.4338 22 17.9726 22L16.964 22C16.4971 22 16.1017 21.6733 16.0375 21.2344C15.9544 20.6661 15.3338 20.3177 14.7777 20.5222C14.3477 20.6804 13.8603 20.5174 13.6297 20.1384L13.1254 19.3094C12.8919 18.9257 12.9924 18.4374 13.3608 18.1653C13.8379 17.8128 13.8456 17.1286 13.3809 16.7738C13.0215 16.4994 12.9265 16.0174 13.1571 15.6384L13.6614 14.8094C13.8949 14.4257 14.3907 14.2642 14.8233 14.4308C15.3598 14.6375 15.9579 14.3098 16.0375 13.7656ZM17.1646 14.5127C17.219 14.3888 17.3366 14.3 17.4719 14.3C17.6059 14.3 17.7227 14.3871 17.7777 14.5093C18.2013 15.4499 19.245 15.9291 20.221 15.7606C20.3138 15.7445 20.4091 15.7829 20.4581 15.8634C20.5081 15.9456 20.4966 16.0504 20.4369 16.1259C19.8078 16.9203 19.8282 18.0475 20.4635 18.8272C20.5245 18.902 20.5368 19.0073 20.4866 19.0898C20.4384 19.1689 20.3449 19.2071 20.2536 19.192C19.2504 19.0264 18.1959 19.5331 17.7733 20.4964C17.7211 20.6154 17.6079 20.7 17.4779 20.7L17.4653 20.7C17.3342 20.7 17.2203 20.6139 17.1685 20.4935C16.7621 19.5483 15.7331 19.0359 14.7468 19.1931C14.6553 19.2077 14.5619 19.1694 14.5137 19.0903C14.4634 19.0075 14.4757 18.9019 14.5368 18.8268C15.1717 18.0472 15.1921 16.9204 14.5634 16.1262C14.5035 16.0505 14.492 15.9454 14.5421 15.863C14.5911 15.7826 14.6864 15.7441 14.7793 15.7598C15.7412 15.9219 16.7575 15.4384 17.1646 14.5127ZM10.1464 15C7.33419 15 4.89931 16.9532 4.28926 19.6984L4.18932 20.1481C4.09217 20.5853 4.42482 21 4.87265 21L11.6571 21C12.0161 21 12.3071 20.709 12.3071 20.35C12.3071 19.991 12.0161 19.7 11.6571 19.7L5.62966 19.7C6.20474 17.6982 8.04051 16.3 10.1464 16.3L11.6571 16.3C12.0161 16.3 12.3071 16.009 12.3071 15.65C12.3071 15.291 12.0161 15 11.6571 15L10.1464 15ZM17.5 19C18.3284 19 19 18.3284 19 17.5C19 16.6716 18.3284 16 17.5 16C16.6716 16 16 16.6716 16 17.5C16 18.3284 16.6716 19 17.5 19Z"/></svg>

<svg xmlns="http://www.w3.org/2000/svg" fill="none" viewBox="0 0 24 24" focusable="false"><path fill="#74767B" fill-rule="evenodd" d="M12 3C9.33 3 7.26 5.32 7.56 7.96l.26 2.31A4.21 4.21 0 0 0 12 14c2.13 0 3.93-1.61 4.17-3.73l.26-2.31A4.46 4.46 0 0 0 12 3m2.88 7.12.26-2.3c.21-1.88-1.26-3.53-3.14-3.53-1.89 0-3.36 1.65-3.15 3.53l.26 2.3A2.91 2.91 0 0 0 12 12.7c1.47 0 2.71-1.11 2.88-2.58m1.15 3.64c.07-.44.46-.76.93-.76h1.01c.46 0 .85.31.92.75.09.56.72.89 1.28.68.43-.17.93-.01 1.16.37l.51.83c.23.38.13.86-.23 1.14a.867.867 0 0 0 .02 1.39c.37.27.47.76.24 1.14l-.5.83c-.24.38-.72.55-1.15.39-.59-.22-1.23.14-1.33.72-.07.44-.46.76-.92.76h-1.01a.93.93 0 0 1-.93-.77c-.08-.57-.7-.92-1.26-.71a.966.966 0 0 1-1.15-.39l-.5-.83a.856.856 0 0 1 .24-1.14c.47-.35.48-1.04.02-1.39-.36-.28-.46-.76-.23-1.14l.51-.83c.23-.38.73-.54 1.16-.37.53.2 1.13-.13 1.21-.67m1.13.75c.05-.13.17-.21.31-.21.13 0 .25.08.3.2.43.94 1.47 1.42 2.45 1.26.09-.02.18.02.23.1s.04.19-.02.26c-.63.8-.61 1.92.03 2.7.06.08.07.18.02.26s-.14.12-.23.11c-1-.17-2.06.34-2.48 1.3-.05.12-.17.21-.3.21h-.01c-.13 0-.24-.09-.3-.21-.4-.95-1.43-1.46-2.42-1.3a.25.25 0 0 1-.23-.1.24.24 0 0 1 .02-.27c.64-.78.66-1.9.03-2.7a.23.23 0 0 1-.02-.26c.05-.08.14-.12.23-.11.97.17 1.98-.32 2.39-1.24m-7.02.49c-2.81 0-5.25 1.95-5.86 4.69l-.1.45c-.09.44.24.86.69.86h6.78c.36 0 .65-.3.65-.65 0-.36-.29-.65-.65-.65H5.62a4.71 4.71 0 0 1 4.52-3.41h1.51c.36 0 .65-.29.65-.64 0-.36-.29-.65-.65-.65zm7.36 4c.82 0 1.5-.68 1.5-1.5 0-.83-.68-1.5-1.5-1.5-.83 0-1.5.67-1.5 1.5 0 .82.67 1.5 1.5 1.5"/></svg>
